file/chicago-tribune.svg

<svg clip-rule="evenodd" fill-rule="evenodd" stroke-linejoin="round" stroke-miterlimit="1.41421" viewBox="0 0 560 400" xmlns="http://www.w3.org/2000/svg"><path d="m124.593 36.928c0 1.555-2.213 3.189-4.584 5.099-3.103 2.516-4.705 3.717-4.705 3.717-1.54-.87-2.426-1.118-4.706-1.118-2.878 0-4.508.299-6.54 1.118l-.122-.043c1.638-3.052 4.89-5.584 9.45-5.584 2.036 0 4.336.847 5.828 1.839.398-.252 1.673-1.185 1.673-1.874 0-2.04-3.76-1.847-4.386-5.584l-4.308 4.343c-1.894-1.496-5.733-3.945-7.781-5.02v-.162c.882-.563 1.24-1.323 1.24-3.272v-12.163c4.222-2.225 8.088-4.454 10.451-6.261 1.851 1.539 5.438 3.823 7.415 4.906v.114c-.914.563-1.237 1.442-1.237 4.631v9.651c0 3.233 2.312 2.989 2.312 5.663zm63.542-35.818c-.567 4.415-2.382 8.344-7.06 8.344-.555 0-1.595-.082-1.953-.122v26.159c2.831-.398 6.289-1.772 7.659-2.871l.201.516c-2.138 3.063-8.025 7.745-15.318 7.745-9.218 0-16.353-6.072-16.353-15.881 0-8.446 6.973-14.538 11.525-16.148l.398.157c-3.178 2.895-5.422 6.836-5.422 13.046 0 5.178 2.114 8.612 5.343 11.167l1.434-.917v-12.845c0-2.709-.229-4.698-1.792-5.269v-.196c2.083-.863 5.93-2.761 8.297-4.226v18.897c-2.107 1.158-5.659 3.576-7.458 4.954 2.075 1.437 5.103 2.154 8.253 2.154 1.083 0 1.583-.055 2.796-.24v-26.249c-5.741-.476-11.86-2.859-16.554-2.859-3.296 0-5.781 1.347-5.781 3.859 0 1.52 1.193 2.174 1.953 2.516l-.637.355c-1.402-.634-3.151-2.158-3.151-5.383 0-4.694 3.777-7.773 8.852-7.773 7.021 0 13.625 3.705 19.823 3.705 1.913 0 3.685-1.012 4.587-2.87zm-155.35 31.671c-2.583 3.009-7.458 7.939-14.994 7.939-10.258 0-17.791-6.97-17.791-18.866 0-10.919 9.006-16.971 14.837-19.224l.481.241c-5.501 3.646-8.459 8.06-8.459 15.75 0 6.785 2.434 11.617 6.104 14.44l1.236-.839v-16.991c0-3.067-.555-5.221-1.476-5.973v-.249c4.508-2.106 9.175-5.422 12.407-8.375.997 1.166 2.233 1.677 3.788 1.677 1.694 0 2.832-.598 3.588-1.153l.279.236c-.149 3.469-1.992 6.698-6.339 6.698-.636 0-1.203-.05-1.717-.147v27.464c2.872-.321 5.47-1.554 7.859-3.222zm203.847-15.754c-.976.405-1.232 1.634-1.232 4.473v11.207c-2.477.866-7.943 3.705-10.494 6.134-1.922-1.338-4.985-3.437-7.462-4.906v-.114c1.157-.642 1.319-1.717 1.319-4.954v-23.925c0-1.792-.319-2.709-.721-3.426l.244-.122c.839.717 1.398 1.555 1.635 2.709h.082c1.284-2.138 2.883-3.512 5.978-3.906l.043.236c-.862 1.063-1.477 2.008-1.477 4.072v12.722l4.907-5.225c1.476 1.323 5.276 3.729 7.178 4.906zm47.902 16.632-5.107 5.182c-1.28-1.008-3.351-2.342-4.505-2.988v-17.669c-.85-.516-2.161-1.516-2.713-1.996l-2.394 2.433v14.881c.784.339 1.914 1.028 2.473 1.433v.122l-3.705 3.784c-1.351-1.13-3.753-2.665-5.789-3.748v-.118c.839-.477 1.241-1.473 1.241-3.753v-12.959l-2.749-2.193-1.48 1.516-.363-.359 5.108-5.225c.893.953 3.445 3.028 5.264 4.147v1.559l5.422-5.706c1.879 1.477 4.907 3.414 6.663 4.469v.122c-.957.516-1.236 1.792-1.236 4.064v12.845l1.992 1.315 1.516-1.52zm-67.921-.118-5.107 5.3c-1.524-1.22-4.08-2.917-5.745-3.784v-.122c.878-.563 1.24-1.677 1.24-3.351v-14.274l-1.874-1.315-1.438 1.469-.362-.355 4.989-5.186c1.398 1.347 4.17 2.962 5.623 3.71v.078c-.819.489-1.197 1.272-1.197 3.395v14.435l1.993 1.197 1.52-1.559zm-71.115-16.558c-.803.363-1.276 1.477-1.276 3.757v11.88c-2.37 1.039-7.781 4.06-10.494 6.221-2.831-2.067-4.308-3.189-7.458-4.906v-.114c.8-.484 1.319-1.8 1.319-3.871v-11.726c3.627-1.753 7.573-4.229 10.368-6.261 1.796 1.315 5.348 3.748 7.541 4.906zm156.862 2.635c-3.323 2.035-7.277 4.65-10.289 6.82v5.631c1.331.594 3.619 2.008 4.666 2.705l2.709-2.792.359.323-6.336 6.536c-1.969-1.421-5.82-3.874-8.541-5.339v-.118c.874-.248 1.363-1.52 1.363-4.312v-10.848c3.744-1.678 7.213-3.985 10.005-6.261zm-98.671-6.025c-.181 2.075-2.035 4.753-4.347 4.753-1.689 0-2.989-.76-3.867-2.001l-.598.603v15.514c1.406.666 3.244 1.768 4.024 2.276l1.477-1.516.401.351-5.182 5.268c-2.406-1.819-5.674-3.886-7.619-4.863v-.043c.851-.303 1.197-1 1.197-2.382v-13.329l-2.556-2.229-1.433 1.551-.362-.362 4.906-5.182c1.465 1.615 3.922 3.485 5.068 4.308l4.068-4.265c.764.942 1.598 1.749 3.032 1.749.555 0 1.153-.158 1.595-.355zm58.07 19.948-5.068 5.261c-1.363-1.114-3.643-2.642-4.985-3.39v-1.839l-5.781 5.268c-2.315-1.913-4.268-3.154-6.34-4.181v-.122c1.068-.579 1.316-1.639 1.316-4.151v-13.077l-1.835-1.284-1.556 1.599-.397-.358 5.063-5.265c.977.843 3.088 2.347 4.47 2.993v18.027c.594.334 1.748 1.114 2.709 1.866l2.311-2.15s-.004-11.325 0-15.471c-.626-.488-1.811-1.118-2.394-1.398v-.118c1.004-.851 2.863-2.65 3.71-3.749 1.413 1.138 4.256 2.867 5.709 3.67v.079c-.886.409-1.24 1.358-1.24 3.426v14.081l2.555 1.441 1.434-1.477zm-206.399.032-5.068 5.229c-1.035-.803-3.114-2.205-4.504-2.949v-17.551c-1.099-.5-2.599-1.594-3.229-2.193l-1.796 1.874v15.476l2.512 1.429v.126l-3.709 3.788c-1.41-1.197-3.843-2.76-5.745-3.745v-.082c.677-.638 1.158-1.76 1.158-3.907v-26.327c0-1.992-.359-2.591-.756-3.268l.275-.118c.878.76 1.426 1.401 1.638 2.748h.083c1.284-2.142 2.878-3.548 5.981-3.945l.079.161c-.866 1.055-1.516 2.209-1.516 3.985v12.923l4.946-5.225c1.673 1.398 4.505 3.591 6.977 4.867v.114c-.677.725-1.075 2.115-1.075 4.517v12.073l1.875 1.201 1.516-1.552zm11.723-.071-5.104 5.3c-1.323-1.122-3.697-2.678-5.701-3.788v-.126c.756-.315 1.272-1.551 1.272-3.107v-14.554l-1.832-1.275-1.476 1.512-.358-.355 4.985-5.221c1.189.98 3.603 2.607 5.623 3.705v.079c-.819.492-1.197 2.075-1.197 3.906v13.924l1.913 1.197 1.477-1.563zm26.485 1.835c-1.737 1.232-3.139 2.276-4.828 3.465-3.028-.996-5.462-3.721-5.462-6.895 0-4.276 3.446-6.477 6.62-7.619v-.044c-2.733-1.323-4.97-3.831-5.584-6.859l8.773-5.422c1.721 1.468 5.667 4.032 7.86 5.264v.119c-1.079.72-1.355 1.602-1.355 3.87v12.042l2.312 1.48 1.476-1.516.398.398-5.107 5.143c-1.244-1.036-3.678-2.749-5.064-3.426zm-9.132-21.937c-.189 2.402-2.028 4.824-4.587 4.824-2.387 0-3.859-.969-4.666-2.67l-.319.197v16.156c1.362.729 3.488 2.008 4.666 2.792l2.551-2.63.398.35-6.103 6.344c-2.706-1.957-6.438-4.221-8.734-5.304v-.122c1.079-.67 1.476-1.717 1.476-4.265v-11.049c4.186-1.63 7.498-3.95 9.853-6.021.46.76 1.52 1.713 2.87 1.713 1.122 0 2.001-.252 2.438-.559zm-60.144-5.551c-1.442-.369-2.446-1.142-3.391-2.23l-.201.039v22.977c-2.122 1.189-5.587 3.564-7.257 4.824 2.485 1.716 6.108 2.032 9.813 2.032.349 0 .694-.014 1.036-.041zm114.099 27.244v-16.511c-1.347-.835-3.521-2.532-4.383-3.229l-.638.358v16.511c.925.544 2.713 1.914 4.39 3.229zm91.185-.036v-16.711l-3.154-2.158-1.875 1.795v14.204l4.269 3.264zm-135.811-.519v-10.656c-3.47.414-5.423 2.875-5.423 5.95 0 2.343 1.674 4.741 4.229 5.536zm22.653-.717v-15.396c-1.945-1.201-3.626-2.43-4.426-3.115l-.598.362v16.432c.976.559 3.051 2.056 3.989 2.753zm180.595-11.451c-.819-1.162-3.402-5.009-4.544-6.816l-.398.315v9.809zm-203.248 1v-4.749c-1.422-.819-3.855-2.512-4.942-3.39l-.638.402c.197 2.811.587 6.489 2.469 8.379.685-.236 2.291-.547 3.111-.642zm119.099-19.066c-1.177.819-2.76 2.567-3.473 3.552-.563-.693-2.032-2.245-3.548-3.391 1.012-.823 2.761-2.622 3.548-3.784.803 1.02 2.512 2.808 3.473 3.623zm-149.451-.039c-1.292.925-2.674 2.382-3.469 3.547-.906-1.138-2.45-2.5-3.627-3.307 1.162-.91 2.926-2.717 3.627-3.71.701.985 2.409 2.654 3.469 3.47z" fill="#1162a5" fill-rule="nonzero" transform="matrix(1.65366 0 0 1.65366 30 162.177)"/></svg>

<?xml version="1.0" encoding="UTF-8" standalone="no"?>
<!DOCTYPE svg PUBLIC "-//W3C//DTD SVG 1.1//EN" "http://www.w3.org/Graphics/SVG/1.1/DTD/svg11.dtd">
<svg width="100%" height="100%" viewBox="0 0 560 400" version="1.1" xmlns="http://www.w3.org/2000/svg" xmlns:xlink="http://www.w3.org/1999/xlink" xml:space="preserve" xmlns:serif="http://www.serif.com/" style="fill-rule:evenodd;clip-rule:evenodd;stroke-linejoin:round;stroke-miterlimit:1.41421;">
    <g id="path1642" transform="matrix(1.65366,0,0,1.65366,30,162.177)">
        <path d="M124.593,36.928C124.593,38.483 122.38,40.117 120.009,42.027C116.906,44.543 115.304,45.744 115.304,45.744C113.764,44.874 112.878,44.626 110.598,44.626C107.72,44.626 106.09,44.925 104.058,45.744L103.936,45.701C105.574,42.649 108.826,40.117 113.386,40.117C115.422,40.117 117.722,40.964 119.214,41.956C119.612,41.704 120.887,40.771 120.887,40.082C120.887,38.042 117.127,38.235 116.501,34.498L112.193,38.841C110.299,37.345 106.46,34.896 104.412,33.821L104.412,33.659C105.294,33.096 105.652,32.336 105.652,30.387L105.652,18.224C109.874,15.999 113.74,13.77 116.103,11.963C117.954,13.502 121.541,15.786 123.518,16.869L123.518,16.983C122.604,17.546 122.281,18.425 122.281,21.614L122.281,31.265C122.281,34.498 124.593,34.254 124.593,36.928ZM188.135,1.11C187.568,5.525 185.753,9.454 181.075,9.454C180.52,9.454 179.48,9.372 179.122,9.332L179.122,35.491C181.953,35.093 185.411,33.719 186.781,32.62L186.982,33.136C184.844,36.199 178.957,40.881 171.664,40.881C162.446,40.881 155.311,34.809 155.311,25C155.311,16.554 162.284,10.462 166.836,8.852L167.234,9.009C164.056,11.904 161.812,15.845 161.812,22.055C161.812,27.233 163.926,30.667 167.155,33.222L168.589,32.305L168.589,19.46C168.589,16.751 168.36,14.762 166.797,14.191L166.797,13.995C168.88,13.132 172.727,11.234 175.094,9.769L175.094,28.666C172.987,29.824 169.435,32.242 167.636,33.62C169.711,35.057 172.739,35.774 175.889,35.774C176.972,35.774 177.472,35.719 178.685,35.534L178.685,9.285C172.944,8.809 166.825,6.426 162.131,6.426C158.835,6.426 156.35,7.773 156.35,10.285C156.35,11.805 157.543,12.459 158.303,12.801L157.666,13.156C156.264,12.522 154.515,10.998 154.515,7.773C154.515,3.079 158.292,0 163.367,0C170.388,0 176.992,3.705 183.19,3.705C185.103,3.705 186.875,2.693 187.777,0.835L188.135,1.11ZM32.785,32.781C30.202,35.79 25.327,40.72 17.791,40.72C7.533,40.72 0,33.75 0,21.854C0,10.935 9.006,4.883 14.837,2.63L15.318,2.871C9.817,6.517 6.859,10.931 6.859,18.621C6.859,25.406 9.293,30.238 12.963,33.061L14.199,32.222L14.199,15.231C14.199,12.164 13.644,10.01 12.723,9.258L12.723,9.009C17.231,6.903 21.898,3.587 25.13,0.634C26.127,1.8 27.363,2.311 28.918,2.311C30.612,2.311 31.75,1.713 32.506,1.158L32.785,1.394C32.636,4.863 30.793,8.092 26.446,8.092C25.81,8.092 25.243,8.042 24.729,7.945L24.729,35.409C27.601,35.088 30.199,33.855 32.588,32.187L32.785,32.781ZM236.632,17.027C235.656,17.432 235.4,18.661 235.4,21.5L235.4,32.707C232.923,33.573 227.457,36.412 224.906,38.841C222.984,37.503 219.921,35.404 217.444,33.935L217.444,33.821C218.601,33.179 218.763,32.104 218.763,28.867L218.763,4.942C218.763,3.15 218.444,2.233 218.042,1.516L218.286,1.394C219.125,2.111 219.684,2.949 219.921,4.103L220.003,4.103C221.287,1.965 222.886,0.591 225.981,0.197L226.024,0.433C225.162,1.496 224.547,2.441 224.547,4.505L224.547,17.227L229.454,12.002C230.93,13.325 234.73,15.731 236.632,16.908L236.632,17.027ZM284.534,33.659L279.427,38.841C278.147,37.833 276.076,36.499 274.922,35.853L274.922,18.184C274.072,17.668 272.761,16.668 272.209,16.188L269.815,18.621L269.815,33.502C270.599,33.841 271.729,34.53 272.288,34.935L272.288,35.057L268.583,38.841C267.232,37.711 264.83,36.176 262.794,35.093L262.794,34.975C263.633,34.498 264.035,33.502 264.035,31.222L264.035,18.263L261.286,16.07L259.806,17.586L259.443,17.227L264.551,12.002C265.444,12.955 267.996,15.03 269.815,16.149L269.815,17.708L275.237,12.002C277.116,13.479 280.144,15.416 281.9,16.471L281.9,16.593C280.943,17.109 280.664,18.385 280.664,20.657L280.664,33.502L282.656,34.817L284.172,33.297L284.534,33.659ZM216.613,33.541L211.506,38.841C209.982,37.621 207.426,35.924 205.761,35.057L205.761,34.935C206.639,34.372 207.001,33.258 207.001,31.584L207.001,17.31L205.127,15.995L203.689,17.464L203.327,17.109L208.316,11.923C209.714,13.27 212.486,14.885 213.939,15.633L213.939,15.711C213.12,16.2 212.742,16.983 212.742,19.106L212.742,33.541L214.735,34.738L216.255,33.179L216.613,33.541ZM145.498,16.983C144.695,17.346 144.222,18.46 144.222,20.74L144.222,32.62C141.852,33.659 136.441,36.68 133.728,38.841C130.897,36.774 129.42,35.652 126.27,33.935L126.27,33.821C127.07,33.337 127.589,32.021 127.589,29.95L127.589,18.224C131.216,16.471 135.162,13.995 137.957,11.963C139.753,13.278 143.305,15.711 145.498,16.869L145.498,16.983ZM302.36,19.618M302.36,19.618C299.037,21.653 295.083,24.268 292.071,26.438L292.071,32.069C293.402,32.663 295.69,34.077 296.737,34.774L299.446,31.982L299.805,32.305L293.469,38.841C291.5,37.42 287.649,34.967 284.928,33.502L284.928,33.384C285.802,33.136 286.291,31.864 286.291,29.072L286.291,18.224C290.035,16.546 293.504,14.239 296.296,11.963L302.36,19.618ZM203.689,13.593C203.508,15.668 201.654,18.346 199.342,18.346C197.653,18.346 196.353,17.586 195.475,16.345L194.877,16.948L194.877,32.462C196.283,33.128 198.121,34.23 198.901,34.738L200.378,33.222L200.779,33.573L195.597,38.841C193.191,37.022 189.923,34.955 187.978,33.978L187.978,33.935C188.829,33.632 189.175,32.935 189.175,31.553L189.175,18.224L186.619,15.995L185.186,17.546L184.824,17.184L189.73,12.002C191.195,13.617 193.652,15.487 194.798,16.31L198.866,12.045C199.63,12.987 200.464,13.794 201.898,13.794C202.453,13.794 203.051,13.636 203.493,13.439L203.689,13.593ZM261.759,33.541L256.691,38.802C255.328,37.688 253.048,36.16 251.706,35.412L251.706,33.573L245.925,38.841C243.61,36.928 241.657,35.687 239.585,34.66L239.585,34.538C240.653,33.959 240.901,32.899 240.901,30.387L240.901,17.31L239.066,16.026L237.51,17.625L237.113,17.267L242.176,12.002C243.153,12.845 245.264,14.349 246.646,14.995L246.646,33.022C247.24,33.356 248.394,34.136 249.355,34.888L251.666,32.738C251.666,32.738 251.662,21.413 251.666,17.267C251.04,16.779 249.855,16.149 249.272,15.869L249.272,15.751C250.276,14.9 252.135,13.101 252.982,12.002C254.395,13.14 257.238,14.869 258.691,15.672L258.691,15.751C257.805,16.16 257.451,17.109 257.451,19.177L257.451,33.258L260.006,34.699L261.44,33.222L261.759,33.541ZM55.36,33.573L50.292,38.802C49.257,37.999 47.178,36.597 45.788,35.853L45.788,18.302C44.689,17.802 43.189,16.708 42.559,16.109L40.763,17.983L40.763,33.459L43.275,34.888L43.275,35.014L39.566,38.802C38.156,37.605 35.723,36.042 33.821,35.057L33.821,34.975C34.498,34.337 34.979,33.215 34.979,31.068L34.979,4.741C34.979,2.749 34.62,2.15 34.223,1.473L34.498,1.355C35.376,2.115 35.924,2.756 36.136,4.103L36.219,4.103C37.503,1.961 39.097,0.555 42.2,0.158L42.279,0.319C41.413,1.374 40.763,2.528 40.763,4.304L40.763,17.227L45.709,12.002C47.382,13.4 50.214,15.593 52.686,16.869L52.686,16.983C52.009,17.708 51.611,19.098 51.611,21.5L51.611,33.573L53.486,34.774L55.002,33.222L55.36,33.573ZM67.083,33.502L61.979,38.802C60.656,37.68 58.282,36.124 56.278,35.014L56.278,34.888C57.034,34.573 57.55,33.337 57.55,31.781L57.55,17.227L55.718,15.952L54.242,17.464L53.884,17.109L58.869,11.888C60.058,12.868 62.472,14.495 64.492,15.593L64.492,15.672C63.673,16.164 63.295,17.747 63.295,19.578L63.295,33.502L65.208,34.699L66.685,33.136L67.083,33.502ZM93.568,35.337C91.831,36.569 90.429,37.613 88.74,38.802C85.712,37.806 83.278,35.081 83.278,31.907C83.278,27.631 86.724,25.43 89.898,24.288L89.898,24.244C87.165,22.921 84.928,20.413 84.314,17.385L93.087,11.963C94.808,13.431 98.754,15.995 100.947,17.227L100.947,17.346C99.868,18.066 99.592,18.948 99.592,21.216L99.592,33.258L101.904,34.738L103.38,33.222L103.778,33.62L98.671,38.763C97.427,37.727 94.993,36.014 93.607,35.337L93.568,35.337ZM84.436,13.4C84.247,15.802 82.408,18.224 79.849,18.224C77.462,18.224 75.99,17.255 75.183,15.554L74.864,15.751L74.864,31.907C76.226,32.636 78.352,33.915 79.53,34.699L82.081,32.069L82.479,32.419L76.376,38.763C73.67,36.806 69.938,34.542 67.642,33.459L67.642,33.337C68.721,32.667 69.118,31.62 69.118,29.072L69.118,18.023C73.304,16.393 76.616,14.073 78.971,12.002C79.431,12.762 80.491,13.715 81.841,13.715C82.963,13.715 83.842,13.463 84.279,13.156L84.436,13.4ZM24.292,7.849C22.85,7.48 21.846,6.707 20.901,5.619L20.7,5.658L20.7,28.635C18.578,29.824 15.113,32.199 13.443,33.459C15.928,35.175 19.551,35.491 23.256,35.491C23.605,35.491 23.95,35.477 24.292,35.45L24.292,7.849ZM138.391,35.093L138.391,18.582C137.044,17.747 134.87,16.05 134.008,15.353L133.37,15.711L133.37,32.222C134.295,32.766 136.083,34.136 137.76,35.451L138.391,35.093ZM229.576,35.057L229.576,18.346L226.422,16.188L224.547,17.983L224.547,32.187L228.816,35.451L229.576,35.057ZM93.765,34.538L93.765,23.882C90.295,24.296 88.342,26.757 88.342,29.832C88.342,32.175 90.016,34.573 92.571,35.368L93.765,34.538ZM116.418,33.821L116.418,18.425C114.473,17.224 112.792,15.995 111.992,15.31L111.394,15.672L111.394,32.104C112.37,32.663 114.445,34.16 115.383,34.857L116.418,33.821ZM284.534,33.659M55.36,33.573M67.083,33.502M297.013,22.37C296.194,21.208 293.611,17.361 292.469,15.554L292.071,15.869L292.071,25.678L297.013,22.37ZM93.765,23.37L93.765,18.621C92.343,17.802 89.91,16.109 88.823,15.231L88.185,15.633C88.382,18.444 88.772,22.122 90.654,24.012C91.339,23.776 92.945,23.465 93.765,23.37ZM212.864,4.304C211.687,5.123 210.104,6.871 209.391,7.856C208.828,7.163 207.359,5.611 205.843,4.465C206.855,3.642 208.604,1.843 209.391,0.681C210.194,1.701 211.903,3.489 212.864,4.304ZM63.413,4.265C62.121,5.19 60.739,6.647 59.944,7.812C59.038,6.674 57.494,5.312 56.317,4.505C57.479,3.595 59.243,1.788 59.944,0.795C60.645,1.78 62.353,3.449 63.413,4.265Z" style="fill:rgb(17,98,165);fill-rule:nonzero;"/>
    </g>
</svg>
